src/images/std-icons/std-report_flag.svg

<svg xmlns="http://www.w3.org/2000/svg" width="512" height="512" viewBox="0 0 512 512">
  <title>report flag</title>
  <path fill="#000" fill-rule="nonzero" d="M405.333333,128 L307.2,128 L302.08,102.4 C300.069102,92.4555715 291.319019,85.3126471 281.173333,85.3332885 L128,85.3332885 C116.232513,85.3684779 106.701811,94.8991801 106.666667,106.666667 L106.666667,426.666667 C106.666667,438.448741 116.217925,448 128,448 C139.782075,448 149.333333,438.448741 149.333333,426.666667 L149.333333,298.666667 L268.8,298.666667 L273.92,324.266667 C275.855686,334.256264 284.651784,341.436752 294.826667,341.333333 L405.333333,341.333333 C417.10082,341.298189 426.631522,331.767487 426.666667,320 L426.666667,149.333333 C426.631522,137.565847 417.10082,128.035145 405.333333,128 Z M192,234.666667 C192,246.448741 182.448741,256 170.666667,256 C158.884592,256 149.333333,246.448741 149.333333,234.666667 L149.333333,149.333333 C149.333333,137.551259 158.884592,128 170.666667,128 C182.448741,128 192,137.551259 192,149.333333 L192,234.666667 Z"/>
</svg>

<svg xmlns="http://www.w3.org/2000/svg" viewBox="0 0 512 512">
  <title>
    report flag
  </title>
  <path d="M405.33 128H307.2l-5.12-25.6a21.29 21.29 0 0 0-20.9-17.07H128a21.4 21.4 0 0 0-21.33 21.34v320a21.33 21.33 0 1 0 42.66 0v-128H268.8l5.12 25.6a21.08 21.08 0 0 0 20.9 17.06h110.51A21.4 21.4 0 0 0 426.67 320V149.33A21.4 21.4 0 0 0 405.33 128zM192 234.67a21.33 21.33 0 0 1-42.67 0v-85.34a21.33 21.33 0 0 1 42.67 0v85.34z"/>
</svg>
